packages/tokens/icons/event/size32Px.svg

<svg viewBox="0 0 32 32" fill="none" xmlns="http://www.w3.org/2000/svg" width="1em" height="1em"><path d="M3.5 6C3.5 5.17157 4.17157 4.5 5 4.5L27 4.5C27.8284 4.5 28.5 5.17157 28.5 6V27C28.5 27.8284 27.8284 28.5 27 28.5H5C4.17157 28.5 3.5 27.8284 3.5 27L3.5 6Z" stroke="currentColor" stroke-linejoin="round"/><path d="M9.5 2.5V6.5" stroke="currentColor" stroke-linecap="round" stroke-linejoin="round"/><path d="M22.5 2.5V6.5" stroke="currentColor" stroke-linecap="round" stroke-linejoin="round"/><path d="M3.5 10.5L28.5 10.5" stroke="currentColor" stroke-linecap="round" stroke-linejoin="round"/><path d="M12.1226 19.3253L10.3861 17.6487C9.80327 17.0859 10.0966 16.0999 10.8923 15.9472L13.5226 15.4424C13.8416 15.3812 14.111 15.1689 14.245 14.8731L15.0891 13.0102C15.444 12.2271 16.556 12.2271 16.9109 13.0102L17.755 14.8731C17.889 15.1689 18.1584 15.3812 18.4774 15.4424L21.1077 15.9472C21.9034 16.0999 22.1967 17.0859 21.6139 17.6487L19.8774 19.3253C19.6411 19.5535 19.5319 19.8831 19.5853 20.2073L20.0399 22.966C20.1756 23.79 19.3013 24.4076 18.5701 24.0042L16.4831 22.8527C16.1824 22.6868 15.8176 22.6868 15.5169 22.8527L13.4299 24.0042C12.6987 24.4076 11.8244 23.79 11.9601 22.966L12.4147 20.2073C12.4681 19.8831 12.3589 19.5535 12.1226 19.3253Z" stroke="currentColor"/></svg>

<svg xmlns="http://www.w3.org/2000/svg" fill="none" viewBox="0 0 32 32" width="1em" height="1em"><path stroke="currentColor" stroke-linejoin="round" d="M3.5 6A1.5 1.5 0 0 1 5 4.5h22A1.5 1.5 0 0 1 28.5 6v21a1.5 1.5 0 0 1-1.5 1.5H5A1.5 1.5 0 0 1 3.5 27V6Z"/><path stroke="currentColor" stroke-linecap="round" stroke-linejoin="round" d="M9.5 2.5v4m13-4v4m-19 4h25"/><path stroke="currentColor" d="m12.123 19.325-1.737-1.676a1 1 0 0 1 .506-1.702l2.63-.505a1 1 0 0 0 .723-.569l.844-1.863c.355-.783 1.467-.783 1.822 0l.844 1.863a1 1 0 0 0 .722.57l2.63.504a1 1 0 0 1 .507 1.702l-1.737 1.676a1 1 0 0 0-.292.882l.455 2.759a1 1 0 0 1-1.47 1.038l-2.087-1.151a1 1 0 0 0-.966 0l-2.087 1.151a1 1 0 0 1-1.47-1.038l.455-2.759a1 1 0 0 0-.292-.882Z"/></svg>
